X:1
T:Bring The Wagon Home, John
T:Bring The Wagon Home, John - SATB
T:Anon.
C:Anon.
%%score [ 1 2 3 4 ]
L:1/8
Q:1/4=60
M:2/4
K:Ab
V:1 treble nm="Alto"
V:2 treble nm="Soprano"
V:3 bass nm="Tenor"
V:4 bass nm="Bass"
V:1
 E | c3/2 c/ c c | c c2 c | A B A F | E2 z E | A3/2 A/ A B | c A !fermata!d c | c/ B3/2 B c | %8
w: Oh,|bring the wag- on|home, John, It|will not hold us|all. We|used to ride a-|round in it, When|you and I were|
 B2 z E | c3/2 c/ c c | c c2 B | A B A F | E2 z E | A3/2 A/ A B | c A !fermata!d c | c/ B3/2 G E | %16
w: small. Oh,|bring the wag- on|home, John, It|will not hold us|all. We|used to ride a-|round in it, When|you and I were|
 A3 |] %17
w: small.|
V:2
 E | E3/2 E/ E E | =E E2 E | F F F D | C2 z C | C3/2 C/ C D | E C !fermata!F E | =D/ D3/2 D D | %8
w: Oh,|bring the wag- on|home, John, It|will not hold us|all. We|used to ride a-|round in it, When|you and I were|
 _D2 z E | E3/2 E/ E E | _G G2 G | F F F D | C2 z C | C3/2 C/ C D | E C !fermata!F E | %15
w: small. Oh,|bring the wag- on|home, John, It|will not hold us|all. We|used to ride a-|round in it, When|
 =D/ D3/2 _D D | C3 |] %17
w: you and I were|small.|
V:3
 E, | A,3/2 A,/ A, A, | G, G,2 G, | F, F, A, A, | A,2 z A, | A,3/2 A,/ A, A, | %6
w: Oh,|bring the wag- on|home, John, It|will not hold us|all. We|used to ride a-|
 A, A, !fermata!=A, A, | _A,/ A,3/2 F, A, | G,2 z E, | A,3/2 A,/ A, A, | A, A,2 C | D D D A, | %12
w: round in it, When|you and I were|small. Oh,|bring the wag- on|home, John, It|will not hold us|
 A,2 z E, | A,3/2 A,/ A, A, | A, A, !fermata!=A, A, | F,/ F,3/2 E, E, | E,3 |] %17
w: all. We|used to ride a-|round in it, When|you and I were|small.|
V:4
 D, | A,,3/2 A,,/ A,, A,, | C, C,2 C, | D, D, D, D, | A,,2 z A,, | A,,3/2 A,,/ A,, A,, | %6
w: Oh,|bring the wag- on|home, John, It|will not hold us|all. We|used to ride a-|
 A,, A, !fermata!F, F, | B,,/ B,,3/2 B,, B,, | E,2 z E, | A,,3/2 A,,/ A,, A,, | E, E,2 A,, | %11
w: round in it, When|you and I were|small. Oh,|bring the wag- on|home, John, It|
 D, D, D, D, | A,,2 z E, | A,,3/2 A,,/ A,, A,, | A,, A, !fermata!F, F, | B,,/ B,,3/2 E, E,, | %16
w: will not hold us|all. We|used to ride a-|round in it, When|you and I were|
 A,,3 |] %17
w: small.|

